X:145
T:John Brady's Jig
S:John Williams - Steam
R:jig
M:6/8
L:1/8
K:Em
Bed B2G | AGD EGA | Bed B2G | Eag e2d |
eaf g2e | dBA G2A | Bed BAG | B^cd E3 ::
GFG AGA | BAB e2f | gfe fed | B^cd e2f |
gfe fed | BAF DEF | G3F3 | B^cd E3 :|
